X:1
T:Esprits, desirant le soulas
T:Jean de Castro
T:Source : La fleur des chansons à 3---Louvain---P.Phalèse---1574. Editor : André Vierendeels (15/09/18) Notes : Original clefs : C1, C3, C4 Original note values have been halved Editorial accidentals above the staff
T:Esprits, desirant le soulas
T:©
T:©
T:©
T:©
T:©
T:©
C:Jean de Castro
Z:©
%%score [ 1 [ 2 3 ] ]
L:1/8
Q:1/4=100
M:2/2
K:C
V:1 treble nm="Soprano" snm="S"
V:2 treble-8 nm="Tenor 1" snm="T 1"
V:3 treble-8 nm="Tenor 2" snm="T 2"
V:1
 E4 ^G4 | z2 B2 c4 | z2 G2 A2 B2 | c2 G2 A4 | z2 G2 G2 G2 | E2 F2 E4- | E4 z2 E2 | %7
w: E- sprits,|e- sprits|de- si- rant|le sou- las,|de- si- rant|le sou- las,|_ de|
"^-natural" c>BAG ^FG F2 | G4 z4 | z4 z GAB | cABc d2 z2 | G2 AB cGAG | EEFG A2 A2 | G2 F2 E2 z G | %14
w: la Mu- sic- que'har- mo- ni- eu-|se|pour re- ti-|rer voz coeurs des lacqs|pour re- ti- rer voz coeurs des|lacqs, pour re- ti- rer voz|coeurs des lacqs, pour|
 A2 B2 c3 A | BA3/2G/4F/4G A2 A2- | A2 B2 c2 BA | ^G2 A4 =G2 | F4 E4- | E2 G2 AA B2- | %20
w: re- ti- rer voz|coeurs _ _ _ _ des lacqs,|_ de tris- * *|tes- * *|* se|_ trop en- nuy- eu-|
 BA/G/ A2 B2 z d- | dcd>c BA z G | E2 F2 E2 Ad- | d^c d2 BG A2 | z A2 G A2 Ad- | d^cdB/B/ AG A2 | %26
w: * * * * se pren-|* nez ioy- * * e sou-|la- ci- eu- se, pren-|* nez ioy- e, sou- las,|pren- nez ioy- e pren-|* nez ioy- e sou- la- ci- eu-|
 B4 z2 G2 | A2 G2 EFEE | G2 z B cd B2 | A2 z B ^cd c2 | d2 B4 c2 | BA3/2G/4F/4G A4- | A2 z2 z2 E2 | %33
w: se, de-|dans cest ou- vra- ge pe-|tit, qui de pen- sé-|e, qui de pen- sé-|e sou- ci-|eu- * * * * se|_ peut|
 AAGG F2 E2 | D2 A2 ddcB | A2 F2 EE A2- | A2 ^G2 A2 A2 | ^G8 |] %38
w: bien con- ten ter l'ap- pé-|tit, peut bbien con- ten- ter|l'ap- pé- tit, con- ten-|* ter l'ap- pé-|tit.|
V:2
 z4 e4 |"^#" g4 z2 c2 | d2 e2 f2 d2 | e4 z2 f2 | e6 d2 | ^cc d3 =c/B/ c2- | c2 g2 e>dcB | %7
w: E-|sprits de-|si- rant le sou-|las, de-|si- rant|le sou _ _ _ las|_ de la Mu- sic- que'har-|
 A3 d dc/B/ A2 | B4 z def | geff e2 z d |"^-natural" e^fge fd c2 | z efg cedd | ^c2 z2 z2 A2 | %13
w: mo- ni- eu- * * *|se, pour re- ti-|rer voz coeurs des lacqs, pour|re- ti- rer voz coeurs des lacqs,|pour re- ti- rer voz coeurs des|lacqs, pour|
 Bcdd ^c>d e2 |"^-natural" z2 d2 c2 A2 | ecBB A2 f2- | f2 g2 g4 | e2 c2 B3 B | d6 ^c2 | z2 e4 d2 | %20
w: re- ti- rer voz coeurs des lacqs,|pour re- ti-|rer voz coeurs des lacqs, de|_ tris- tes-|se trop en- nuy-|eu- se,|en- nuy-|
 e4 d g2 d | e2 d2 z2 z d- | d^c d2 A2 z f- | fe^fg>fe z d | ec B2 c f2 d | fe z g ^fg f2 | %26
w: eu- se, pren- nez|ioy- e, pren-|* nez ioy- e, pren-|* nez ioy- e, sou- las, sou-|la- ci- eu- se, pren- nez|ioy- e sou- la- ci- eu-|
 gde d2 c2 B | cd e2 z2 ^c2 | de d2 cggd | ef z d ef e2 | g2 z d ggfe | ec B2 ^c2 e2 | %32
w: se, de- dans cest ou- vra-|ge pe- tit, qui|de pen- sé- e, qui de pen-|sé- e, qui de pen- sé-|e, qui de pen- sé- e|sou- ci- eu- se peut|
"^-natural" ffed c4- | c2 c2 d2 z e | f2 z f fdeg | f2 d2 c2 e2 | ff e4 d2 | e8 |] %38
w: bien con- ten- ter l'ap-|* pé- tit, peut|bien, peut bien con- ten- ter|l'ap- pé- tit, con-|ten- ter l'ap- pé-|tit|
V:3
 z8 | z8 | z8 | z8 | E4 G4 | A8 |"^-natural" z2 E2 c>BAG | F3 G D4 | G2 z G ABcA | Bc d2 z4 | %10
w: ||||Le sou-|las|de la Mu- sic- que'har-|mo- ni- eu-|se, pour re- ti- rer voz|coeurs des lacqs,|
 z4 z GA>B | c2 z2 z EFG | A3 G F2 F2 | E2 z D A>B c2- |"^#" cd G2 z AFF | E4 z4 | z2 E4 E2 | E8 | %18
w: pour re- ti-|rer, pour re- ti-|rer voz coeurs des|lacqs, pour re- ti- rer|_ voz coeurs, voz coeurs des|lacqs|de tris-|tes-|
 D4 A4 | c6 B2 | c4 G4 | z2 z G2 F G2 | A2 z d2 ^c d2 | A2 z2 z4 | A2 E2 A F2 G | AA G2 D4 | %26
w: se trop|en- nuy-|eu- se,|pren- nez ioy-|e, pren- nez ioy-|e,|pren- nez ioy- e sou-|la- ci- eu- se|
 z2 G2 A2 G2 | F2 E2 A3 A | G4 z2 B2 | ^cd B2 A4 | G6 A2 | E4 A2 z A |"^-natural" ddcB A3 G | %33
w: de- dans cesr|ou- vra- ge pe-|tit, qui|de pen- sé- e|sou- ci-|eu- se peut|bien con- ten- ter l'ap- pe-|
 F2 E2 D2 z G | d4 z4 | D4 G3 G | D2 E2 F2 F2 | E8 |] %38
w: tit, peut bien peut|bien|peut bien con-|ten- ter l'ap- pé-|tit.|

